X:0711
T:The Ton.
M:2/4
L:1/16
Q:1/4=104
I: :: :|
Z:Jack Campin * www.campin.me.uk * 2009
K:G
(Bc)|d2g2 g2(Bc)|B2d2 d2(BA)| G2G2```A2A2 |(BABc) B2
(Bc)|d2g2 g2(Bc)|B2d2 d2(cB)| G2G2```A2A2 | G6    :|
(Bc)|d2g2`e2`c2 |d2g2`e2`c2 | d2B2```A2B2 |(AGAB) A2
(Bc)|d2g2`e2`c2 |d2g2`e2`c2 |(BdBG) (AcAF)| G6    :|

